X:383
T:Europe's Revels. (p)1698.PLFD.383
M:3/2
L:1/4
Q:1/2=100
S:Playford, Dancing Master,9th Ed,extra pages(9C),1698.
O:England
H:1698
Z:Chris Partington
K:G
g2Ggf2|gb2a/g/af|g2deB>c|dDGAAG:|
|:B/c/dA/B/cB2|ea2efd|e/f/gB/c/dG/A/B|DG2AAG:|
